!!!COM: Grieg, Edvard
!!!CDT: 1843/06/15/-1907/09/04/
!!!OPR: Humoresques, Op. 6
!!!ODT: 1865///
!!!OPS: Op. 6
!!!ONM: No. 3
!!!OMD: Allegretto con grazia
**kern	**kern	**dynam
*staff2	*staff1	*staff1/2
*Ipiano	*Ipiano	*Ipiano
*>[A,B,B,C]	*>[A,B,B,C]	*>[A,B,B,C]
*>[A,B,C]	*>[A,B,C]	*>[A,B,C]
*>A	*>A	*>A
*clefF4	*clefG2	*clefG2
*k[]	*k[]	*k[]
*C:	*C:	*C:
*M2/4	*M2/4	*M2/4
*MM100	*MM100	*MM100
=1-	=1-	=1-
*	*^	*
8C\L	8r	4.r	.
8G\ 8c\	16.e/LL	.	p
.	32f/JJk	.	.
8C\	16.g/LL	.	.
.	32a/k	.	.
8G\ 8c\J	16.g/	8f\	<
.	32b/JJk	.	.
=2	=2	=2	=2
8C\L	4r	16.cc\LL)	.
.	.	32b\k	.
8G\ 8e\	.	16.cc\	.
.	.	32ee\JJk	.
8C\	4gg^/	8r	.
8G\ 8d\J	.	8f\ 8b\	.
*	*v	*v	*
=3	=3	=3
8C\L	(16aa\LL	.
.	[16gg\	.
8G\ 8e\	16gg\]	.
.	16ee\JJ	.
8C\	16.cc\LL	.
.	32dd\k	.
8A\ 8d\J	16.f#\ 16.b\	.
.	32cc\JJk)	.
=4	=4	=4
8GG\L	8dd'\L	.
8D\ 8B\	(16dd\L	.
.	16b\JJ	.
8GG\	4g^/)	.
8D\ 8B\J	.	.
=5	=5	=5
!(e-q/	!	!
8d'\L)	8dd'\L)	f
(16d\L	(16dd\L	.
16B-\JJ	16b-\JJ	.
16G\LL	16g\LL	.
16B-\	16b-\	.
16d\	16dd\	.
16g\JJ)	16gg\JJ)	.
=6	=6	=6
!(gq/	!	!
8f'\L)	8ff'\L)	.
(16f\L	(16ff\L	.
16d\JJ	16dd\JJ	.
4B-\)	4b-^\)	.
=7	=7	=7
*	*^	*
2DD/ 2D/	16.r	2c^\	p
.	(32dd/LLK	.	.
.	16.a/	.	.
.	32bn/JJk	.	.
.	16.f#/LL	.	.
.	32a/k	.	.
.	16.e/	.	.
.	32f#/JJk)	.	.
*	*v	*v	*
=8	=8	=8
*	*^	*
2GG/ 2D/	(8e/)	8c\	.
.	4.d^/)	&(4.B\&)	.
=9	=9	=9	=9
8C\L	8r	4.r	.
8G\ 8c\	16.e/LL	.	p
.	32f/JJk	.	.
8C\	16.g/LL	.	.
.	32a/k	.	.
8G\ 8B\J	16.g/	8f\	.
.	32b/JJk	.	<
=10	=10	=10	=10
8C\L	4r	16.cc\LL)	.
.	.	32b\k	.
8G\ 8e\	.	16.cc\	.
.	.	32ee\JJk	.
8C\	4gg^/	8r	.
8G\ 8d\J	.	8f\ 8b\	.
*	*v	*v	*
=11	=11	=11
8C\L	(16aa\LL	.
.	16gg\	.
8G\ 8e\	&(16gg\&)	.
.	16ee\JJ	.
8C\	16.cc\LL	.
.	32dd\k	.
8A\ 8d\J	16.f#\ 16.b\	.
.	32cc\JJk)	.
=12	=12	=12
8GG\L	8dd'\L	.
8D\ 8B\	(16dd\L	.
.	16b\JJ	.
8GG\	4g^/)	.
8D\ 8B\J	.	.
=13	=13	=13
!(e-q/	!	!
8d'\L)	8dd'\L)	f
(16d\L	(16dd\L	.
16B-\JJ	16b-\JJ	.
16G\LL	16g\LL	.
16B-\	16b-\	.
16d\	16dd\	.
16g\JJ)	16gg\JJ)	.
=14	=14	=14
!(gq/	!	!
8f'\L)	8ff'\L	.
(16f\L	(16ff'\L	.
16d\JJ	16dd\JJ	.
4B-\)	4b-\)	.
=15	=15	=15
*	*^	*
2DD/ 2D/	16.r	2c\	p
.	(32dd/LLK	.	.
.	16.a/	.	.
.	32bn/JJk	.	.
.	16.f#/LL	.	.
.	32a/k	.	.
.	16.e/	.	.
.	32f#/JJk)	.	.
*	*v	*v	*
=16	=16	=16
*	*^	*
2GG/ 2D/	8e/)	(8c\	.
.	4.d^/	4.B\)	.
*	*v	*v	*
=17!|:	=17!|:	=17!|:
*>B	*>B	*>B
*	*^	*
8BBB\ 8BB\L	8b/L	8r	ff
8BB\ 8F#\ 8B\J	8b/J	8d\ 8f#\	.
4BB\ 4G\ 4c\	(8cc^/L	4e\ 4g\	.
.	16b/L	.	.
.	16a/JJ	.	.
=18	=18	=18	=18
8BBB\ 8BB\L	8b'/L)	8r	.
8BB\ 8F#\ 8B\J	8b/J	8d\ 8f#\	.
4BB^\ 4G^\ 4c^\	8cc/L	4e\ 4g\	.
.	16b/L	.	.
.	16a/JJ	.	.
=19	=19	=19	=19
8BBB'/ 8BB'/L	16b/LL	4d\	.
.	16cc/	.	.
8EE'/ 8E'/	16g/	.	.
.	16b/JJ	.	.
8AAA'/ 8AA'/	16a/LL	4c\	.
.	16b/	.	.
8DD'/ 8D'/J	16f#/	.	.
.	16a/JJ	.	.
=20	=20	=20	=20
8BBB'/ 8BB'/L	16g/LL	4d\	.
.	16b/	.	.
8CC'/ 8C'/J	16dd/	.	.
.	16b/JJ	.	.
*	*v	*v	*
*	*^	*
8DD/ (8D/L	8f#/ (8a/L	8c\L	.
8GG/J)	8g/J)	8B\J	.
=21	=21	=21	=21
8BBB\ 8BB\L	8b/L	8r	ff
8BB\ 8F#\ 8B\J	8b/J	8d\ 8f#\	.
4BB\ 4G\ 4c\	(16cc/LL	4e\ 4g\	.
.	16b/	.	.
.	16a/	.	.
.	16cc/JJ	.	.
=22	=22	=22	=22
8BBB\ 8BB\L	8b/L)	8r	.
8BB\ 8F#\ 8B\J	8b/J	8d\ 8f#\	.
4BB\ 4G\ 4c\	16cc/LL	4e\ 4g\	.
.	16b/	.	.
.	16a/	.	.
.	16cc/JJ	.	.
=23	=23	=23	=23
8BBB'/ 8BB'/L	16b/LL	4d\	.
.	16cc/	.	.
8EE'/ 8E'/	16g/	.	.
.	16b/JJ	.	.
8AAA'/ 8AA'/	16a/LL	4c\	.
.	16b/	.	.
8DD'/ 8D'/J	16f#/	.	.
.	16a/JJ	.	.
=24	=24	=24	=24
8BBB'/ 8BB'/L	16g/LL	4d\	.
.	16b/	.	.
8CC'/ 8C'/J	16dd/	.	.
.	16b/JJ	.	.
*	*v	*v	*
*	*^	*
8DD/ 8D/L	8f#/ 8a/L)	8c\L	.
16GG/Jk	16g/Jk	16B\Jk	.
16r	16r	16r	.
=25	=25	=25	=25
8r	16g/LL	([8g\L	pp
.	16b/	.	.
8BBB/ 8BB/L	16dd/	8d\ 8g\J]	.
.	16b/JJ	.	.
8DD/ 8D/J	8c/ 8fn/ &(8a/L&)	4r	.
8r	8dd/J)	.	.
*	*v	*v	*
=26	=26	=26
8GGG/ 8GG/L	8B/ 8f/ 8g/L	.
8d'\	8dd'/	.
8g'\J	8gg'/J	.
8r	8r	.
=27	=27	=27
*	*^	*
8C\L	8r	4.r	.
8G\ 8c\	(16.e/LL	.	p
.	32f/JJk	.	.
8C\	16.g/LL	.	.
.	32a/k	.	.
8G\ 8c\J	16.g/	8f\	.
.	32b/JJk)	.	.
=28	=28	=28	=28
8C\L	4r	16.cc\LL)	.
.	.	32b\k	.
8G\ 8e\	.	16.cc\	.
.	.	32ee\JJk	.
8C\	4gg^/	8r	.
8G\ 8d\J	.	8f\ 8b\	.
*	*v	*v	*
=29	=29	=29
8C\L	(16aa\LL	.
.	16gg\	.
8G\ 8e\	16gg\	.
.	16ee\JJ	.
8C\	16.cc\LL	.
.	32dd\k	.
8A\ 8d\J	16.f#\ 16.b\	.
.	32cc\JJk)	.
=30	=30	=30
*^	*	*
8GG\	2GG/	8dd'\L)	.
4D\ (4B\	.	(16dd\L	>
.	.	16b\JJ	.
.	.	4g^/)	.
8E\ 8B-\)	.	.	.
*v	*v	*	*
=31	=31	=31
*	*^	*
8D\L	8r	4.r	.
8A\ 8d\	(16.f/LL	.	p
.	32g/JJk	.	.
8D\	24a/LL	.	.
.	24cc/	.	.
.	24b-/JJ	.	.
8A\ 8c#\J	16.a/LL	8g\	.
.	32cc#/JJk	.	.
=32	=32	=32	=32
!	!.	!eqq/	!.
8D\L	4r	&(16.dd\LL&)	.
.	.	32cc#\k	.
8A\ 8f\	.	16.dd\	.
.	.	32ff\JJk)	.
8D\	4aa/	8r	.
8A\ 8e\J	.	8g\ 8cc#\	.
*	*v	*v	*
=33	=33	=33
8D\L	(16bb-\LL	.
.	16aa\	.
!	!bb-q/	!.
8A\ 8f\	16aa\	.
.	16ff\JJ	.
8D\	16.dd\LL	.
.	32ee\k	.
8Bn\ 8f\J	16.g#\ 16.cc#\	.
.	32dd\JJk)	.
=34	=34	=34
!	!(ffq/	!.
(8AA/	8ee'\L)	pp
4E\ 4c\)	(16ee\L	.
.	16ccn\JJ	.
.	16a\LL	.
.	16cc\	.
8BB/	16ee\	.
.	16aa\JJ)	.
=35	=35	=35
!	!(aaq/	!.
8C/	8gg'\L)	<
4G\ &(4e\&)	(16gg\L	.
.	16ee\JJ	.
.	16cc\LL	.
.	16ee\	.
8D\	16gg\	.
.	16ccc\JJ	.
=36	=36	=36
!	!cccq/	!.
8E\	&(8bb'\L&))	>
4B\ 4g\	(16bb\L	.
.	16gg\JJ	.
.	16ee\LL	.
.	16gg\	.
8F#\	16bb\	.
.	16eee\JJ)	.
=37	=37	=37
!	!(eeeq/	!.
*	*^	*
8G\	8ddd'/L)	8r	.
4.r	(16ddd/L	4.d\ 4.b\	.
.	16bb/JJ	.	.
.	4gg/)	.	.
*	*v	*v	*
=38	=38	=38
!e-q/	!ee-q/	!.
&(8d'\L&)	8dd'\L	ff
16d\L	(16dd\L	.
16B-\JJ	16b-\JJ	.
16G\LL	16g\LL	.
16B-\	16b-\	.
16d\	16dd\	.
16g\JJ	16gg\JJ	.
=39	=39	=39
!(gq/	!ggq/	!.
8f'\L)	8ff'\L)	.
(16f\L	(16ff\L	.
16d\JJ	16dd\JJ	.
4B-\)	4b-\)	.
=40	=40	=40
*	*^	*
2DD/ 2D/	16.r	2c\	p
.	(32dd/LLK	.	.
.	16.a/	.	.
.	32bn/JJk	.	.
.	16.f#/LL	.	.
.	32a/k	.	.
.	16.e/	.	.
.	32f#/JJk)	.	.
*	*v	*v	*
=41	=41	=41
!	!(fq/	!.
*	*^	*
2GG/ 2D/	(8e/)	8c\	.
.	4.d/)	&(4.B\&)	.
*	*v	*v	*
=42:|!	=42:|!	=42:|!
*>C	*>C	*>C
*	*^	*
*^	*	*	*
8GG\L	4GG/	(20g/LL	4r	pp
.	.	20a/	.	.
.	.	20g/	.	.
8D\	.	.	.	.
.	.	20fn/	.	.
.	.	20d/JJ	.	.
8A\	4A^/	16c/LL	4c\	.
.	.	16d/	.	.
8D\J	.	16f/	.	.
.	.	16a/JJ)	.	.
=43	=43	=43	=43	=43
8GG\L	4GG/	(20g/LL	4r	.
.	.	20a/	.	.
.	.	20g/	.	.
8D\	.	.	.	.
.	.	20f/	.	.
.	.	20d/JJ	.	.
8A^\	4A^/	16c/LL	4c\	.
.	.	16d/	.	.
8D\J	.	16f/	.	.
.	.	16a/JJ)	.	.
*v	*v	*	*	*
*	*v	*v	*
=44	=44	=44
8GG\L	16.r	.
.	(32ee\LLK	<
[8F\	16.b\	.
.	32dd\JJk	.
8F\] 8B\	16.a/LL	.
.	32b/k	.
8D\J	16.d/	.
.	32g/JJk)	.
=45	=45	=45
!	!(gq/	!.
4.AAA/ 4.AA/	8B/ 8d/ (8f/)	>
.	&(4c/&) 4e/)	.
8EEE/ 8EE/	8G/ 8B/ 8e/ 8g/	pp
=46	=46	=46
2r	4r	.
.	8.r	.
.	16e/	.
=47	=47	=47
!	!(eq/	!.
(8GGG/ 8GG/	8F/ 8B/ (8d/)	>
4CC/) 4GG/	&(4E/&) 4c/)	.
8r	8r	.
==	==	==
*-	*-	*-
!!!ENC: Craig Stuart Sapp
!!!END: 2008/07/16/
